X:5
T:Robbie Hannon's jig
R:jig
D:"Callan Bridge" by Niall & Cillian Vallely
Z:Transcribed by Lionel Gueganton
M:6/8
K:D
z4AG
|: F2DDAG | AAAGEA | DDDAGE   | F2DDAG   | 
   F2AGFG | AGAcde | dcAGEA   |1 DDDDAG :|2 DDDDAB
|: c2AAGF | G2GGFG | A2dcAG   | Ad^cd2e  | fedcAG  |
   FFAGFG | dcAGEA |1 DDDDAB :|2 DDDDAG  |

